X:220 
T:Up to Your Knees in Sand (reel) 
B:CRE3.159 (Chuig na GlÃÂÃÂÃÂÃÂºine i nGaineamh ThÃÂÃÂÃÂÃÂº)
F:file ID: cre.3/220up_knees
R:reel
L:1/8
Q:180
M:C
K:Em
F|G3F GABc|dBeB dBAF|DFAF BFAF|DFAF GFEF|
G3F GABc|d2eB dBA2|Be~e2 dBAF|DEFD E3:|
F|GBB2 gBeA|FA~A2 FAdA|GB~B2 dBdB|AGFG E3F|
GBB2 gBeA|FA~A2 FAd2|G3F GBdB|AGFG E3:|

%%%

